packages/icons/svg/backup.svg

<svg width="25" height="24" viewBox="0 0 25 24" fill="none" xmlns="http://www.w3.org/2000/svg">
<path fill-rule="evenodd" clip-rule="evenodd" d="M11.9993 0C12.5517 0 12.9994 0.447744 12.9994 1.00006V8.58633L16.2936 5.29209C16.6842 4.90154 17.3174 4.90154 17.7079 5.29209C18.0985 5.68264 18.0985 6.31584 17.7079 6.70639L12.7076 11.7067L12.7068 11.7075C12.5258 11.8887 12.2756 12.0008 11.9993 12.0008C11.7027 12.0008 11.4362 11.8716 11.2531 11.6664L6.293 6.70639C5.90245 6.31584 5.90245 5.68264 6.293 5.29209C6.68355 4.90154 7.31676 4.90154 7.70731 5.29209L10.9993 8.58405V1.00006C10.9993 0.447744 11.447 0 11.9993 0ZM3.00019 13.9994C1.3438 13.9994 0 15.3432 0 16.9996V20.9998C0 22.6562 1.3438 24 3.00019 24H21.0013C22.6577 24 24.0015 22.6562 24.0015 20.9998V16.9996C24.0015 15.3432 22.6577 13.9994 21.0013 13.9994H3.00019ZM5.99979 19.0008C5.99979 18.4485 5.55204 18.0008 4.99972 18.0008C4.4474 18.0008 3.99966 18.4485 3.99966 19.0008V19.0108C3.99966 19.5631 4.4474 20.0109 4.99972 20.0109C5.55204 20.0109 5.99979 19.5631 5.99979 19.0108V19.0008ZM8.99927 18.0008C9.55159 18.0008 9.99934 18.4485 9.99934 19.0008V19.0108C9.99934 19.5631 9.55159 20.0109 8.99927 20.0109C8.44695 20.0109 7.99921 19.5631 7.99921 19.0108V19.0008C7.99921 18.4485 8.44695 18.0008 8.99927 18.0008Z" fill="black"/>
</svg>

<svg xmlns="http://www.w3.org/2000/svg" viewBox="0 0 25 24">
    <path fill-rule="evenodd" d="M12 0a1 1 0 0 1 1 1v7.586l3.294-3.294a1 1 0 1 1 1.414 1.414l-5 5-.001.002a.997.997 0 0 1-1.454-.042l-4.96-4.96a1 1 0 0 1 1.414-1.414L11 8.584V1a1 1 0 0 1 1-1zM3 14a3 3 0 0 0-3 3v4a3 3 0 0 0 3 3h18.001a3 3 0 0 0 3-3v-4a3 3 0 0 0-3-3h-18zm3 5a1 1 0 0 0-2 0v.01a1 1 0 0 0 2 0V19zm3-1a1 1 0 0 1 1 1v.01a1 1 0 0 1-2 0V19a1 1 0 0 1 1-1z" clip-rule="evenodd"/>
</svg>
